papirus/48x48/applets/org.kde.redshiftControl.svg

<?xml version="1.0" encoding="UTF-8" standalone="no"?>
<svg id="svg2817" xmlns:rdf="http://www.w3.org/1999/02/22-rdf-syntax-ns#" xmlns="http://www.w3.org/2000/svg" height="48" width="48" version="1.0" xmlns:cc="http://creativecommons.org/ns#" xmlns:dc="http://purl.org/dc/elements/1.1/">
 <metadata id="metadata57">
  <rdf:RDF>
   <cc:Work rdf:about="">
    <dc:format>image/svg+xml</dc:format>
    <dc:type rdf:resource="http://purl.org/dc/dcmitype/StillImage"/>
    <dc:title/>
   </cc:Work>
  </rdf:RDF>
 </metadata>
 <path id="path4161" style="color:#000000" d="m24 4c-7.18 0-13 5.8203-13 13-0.027 3.893 3.418 7.296 5 11 0.705 1.651 2 5 2 5h12s1.295-3.349 2-5c1.582-3.704 4.931-7.15 5-11 0-7.1797-5.82-13-13-13z" fill="#e74c3c"/>
 <path id="rect4143" d="m30 33-2 9c-0.24036 1.0816-0.892 2-2 2h-4c-1.108 0-1.7678-0.91659-2-2l-2-9z" fill="#434343"/>
 <path id="rect4151" opacity=".2" d="m18 33l0.445 2h11.11l0.445-2h-12zm0.889 4l0.445 2h9.332l0.445-2h-10.222zm0.888 4l0.223 1c0.078 0.363 0.208 0.703 0.383 1h7.23c0.175-0.297 0.306-0.637 0.387-1l0.223-1h-8.446z" fill="#fff"/>
 <path id="path4168" opacity=".2" style="color:#000000" d="m24 4c-7.18 0-13 5.8203-13 13-0.001 0.171 0.014 0.339 0.025 0.508 0.261-6.95 5.961-12.508 12.975-12.508 6.982 0 12.662 5.508 12.971 12.414 0.011-0.138 0.027-0.275 0.029-0.414 0-7.1797-5.82-13-13-13z" fill="#fff"/>
 <path id="path4173" opacity=".2" style="color:#000000" d="m36.971 17.414c-0.289 3.684-3.446 7.016-4.971 10.586-0.705 1.651-2 5-2 5h-12s-1.295-3.349-2-5c-1.512-3.542-4.719-6.809-4.975-10.492-0.006 0.164-0.025 0.326-0.025 0.492-0.027 3.893 3.418 7.296 5 11 0.705 1.651 2 5 2 5h12s1.295-3.349 2-5c1.582-3.704 4.931-7.15 5-11 0-0.198-0.021-0.39-0.029-0.586z"/>
 <path id="path4178" opacity=".2" d="m18 34 2 9c0.232 1.083 0.892 2 2 2h4c1.108 0 1.76-0.918 2-2l2-9h-0.223l-1.777 8c-0.24 1.082-0.892 2-2 2h-4c-1.108 0-1.768-0.917-2-2l-1.777-8h-0.223z"/>
</svg>

<?xml version="1.0" encoding="UTF-8" standalone="no"?>
<svg
   xmlns:dc="http://purl.org/dc/elements/1.1/"
   xmlns:cc="http://creativecommons.org/ns#"
   xmlns:rdf="http://www.w3.org/1999/02/22-rdf-syntax-ns#"
   xmlns:svg="http://www.w3.org/2000/svg"
   xmlns="http://www.w3.org/2000/svg"
   version="1.0"
   width="48"
   height="48"
   id="svg2817">
  <defs
     id="defs15" />
  <metadata
     id="metadata57">
    <rdf:RDF>
      <cc:Work
         rdf:about="">
        <dc:format>image/svg+xml</dc:format>
        <dc:type
           rdf:resource="http://purl.org/dc/dcmitype/StillImage" />
        <dc:title />
      </cc:Work>
    </rdf:RDF>
  </metadata>
  <path
     fill="#e74c3c"
     style="color:#000000"
     d="m24 4c-7.18 0-13 5.8203-13 13-0.027 3.893 3.418 7.296 5 11 0.705 1.651 2 5 2 5h12s1.295-3.349 2-5c1.582-3.704 4.931-7.15 5-11 0-7.1797-5.82-13-13-13z"
     id="path4161" />
  <path
     d="m30 33-2 9c-0.24036 1.0816-0.892 2-2 2h-4c-1.108 0-1.7678-0.91659-2-2l-2-9z"
     fill="#434343"
     id="rect4143" />
  <path
     d="m18 33l0.445 2h11.11l0.445-2h-12zm0.889 4l0.445 2h9.332l0.445-2h-10.222zm0.888 4l0.223 1c0.078 0.363 0.208 0.703 0.383 1h7.23c0.175-0.297 0.306-0.637 0.387-1l0.223-1h-8.446z"
     fill="#fff"
     opacity=".2"
     id="rect4151" />
  <path
     d="m24 4c-7.18 0-13 5.8203-13 13-0.001 0.171 0.014 0.339 0.025 0.508 0.261-6.95 5.961-12.508 12.975-12.508 6.982 0 12.662 5.508 12.971 12.414 0.011-0.138 0.027-0.275 0.029-0.414 0-7.1797-5.82-13-13-13z"
     fill="#fff"
     style="color:#000000"
     opacity=".2"
     id="path4168" />
  <path
     d="M 36.971,17.414 C 36.682,21.098 33.525,24.43 32,28 c -0.705,1.651 -2,5 -2,5 L 18,33 C 18,33 16.705,29.651 16,28 14.488,24.458 11.281,21.191 11.025,17.508 11.019,17.672 11,17.834 11,18 c -0.027,3.893 3.418,7.296 5,11 0.705,1.651 2,5 2,5 l 12,0 c 0,0 1.295,-3.349 2,-5 1.582,-3.704 4.931,-7.15 5,-11 0,-0.198 -0.021,-0.39 -0.029,-0.586 z"
     style="color:#000000;opacity:0.2"
     id="path4173" />
  <path
     style="opacity:0.2"
     d="m 18,34 2,9 c 0.232,1.083 0.892,2 2,2 l 4,0 c 1.108,0 1.76,-0.918 2,-2 L 30,34 29.777,34 28,42 c -0.24,1.082 -0.892,2 -2,2 l -4,0 c -1.108,0 -1.768,-0.917 -2,-2 L 18.223,34 18,34 Z"
     id="path4178" />
</svg>
